X:248
T:When first in London - Fone
%%VWML:SBG-1-2-788-0
F:http://www.vwml.org/record/SBG/1/2/788
Z:Original Sibelius transcriptions by M. & S. Graebe
M:2/4
I:linebreak $
K:D
V:1 treble nm="P1"
V:1
 d2 | A F G E | D E D2 | F A F A | F A F A |[M:3/4] d2 A F G E | D E D2 | d3 B c d A |$ Bc d3 A | %9
 A c e3 A | A c e3 A | Ac e3 c | d f d2 d | f e d c d c | B3 A B c |$ d A Bc c3/2 d/ | AF GE DE | %17
 D2 | FG FA FB | A2 d2 | AF GE DE | D3 d | d3/2 d/ d A | Bc d4 | %24
T:When Joan's ale was new - Chappell
F:http://www.vwml.org/record/SBG/1/2/
Z:Original Sibelius transcriptions by M. & S. Graebe
M:6/8
I:linebreak $
K:D
V:1 treble nm="P1"
V:1
 D | D2 d c2 B | A3 G2 G | G2 G F2 F | F3 E2 D | D2 d c2 d | e3 c2 A | B>cd d2 c |$ d3- d2 | d | %10
 d2 d c2 c | B2 B A2 F | G>FG A2 A | A2 F D2 D | D2 d c2 d | e2 d c2 A |$ B>cd d2 c | d3 d2 | A | %19
 d2- d c2 B | A2 G F2 D | G>FG A2 A | D3- D2 x | %23




